X: 47
T:Music in the Glen
M:C|
L:1/8
R:Reel
K:G
G2BG EGDC|B,DGB AGAB|cdec B2dB|cABG AGED|!
GABG EGDC|B,DGB AGAB|cdef ~g3e|1dcBA G3D:|2dcBA G3A|!
|:BGdG eGdG|BGdB cAFA|BGdG eGde|gedB AGED|!
BGdG eGde|g2fg afdf|g2fg egdB|cABG AGED:|]!
